public/img/Mypage/Vector3.svg

<svg width="13" height="13" viewBox="0 0 13 13" fill="none" xmlns="http://www.w3.org/2000/svg">
<path d="M6.8965 10.7097C7.12748 10.7097 7.32282 10.6298 7.48253 10.4701C7.64223 10.3104 7.72187 10.1153 7.72143 9.88473C7.72099 9.65419 7.64113 9.45885 7.48187 9.29871C7.3226 9.13856 7.12748 9.05893 6.8965 9.05981C6.66552 9.06069 6.47018 9.14054 6.31047 9.29937C6.15077 9.45819 6.07113 9.65331 6.07157 9.88473C6.07201 10.1162 6.15187 10.3115 6.31113 10.4708C6.4704 10.63 6.66552 10.7097 6.8965 10.7097ZM6.30255 8.16889H7.52344C7.52344 7.77292 7.56744 7.48145 7.65543 7.29447C7.74342 7.10748 7.93041 6.871 8.21638 6.58503C8.60135 6.20006 8.87346 5.87823 9.03273 5.61954C9.19199 5.36084 9.27185 5.06673 9.27229 4.7372C9.27229 4.15425 9.0743 3.68415 8.67834 3.3269C8.28237 2.96965 7.74892 2.79081 7.07798 2.79037C6.47304 2.79037 5.95894 2.93886 5.5357 3.23583C5.11246 3.5328 4.81813 3.94527 4.6527 4.47322L5.7416 4.90218C5.8186 4.60521 5.97258 4.36609 6.20356 4.18482C6.43454 4.00356 6.70402 3.91271 7.01199 3.91227C7.30896 3.91227 7.55644 3.99212 7.75442 4.15183C7.9524 4.31153 8.0514 4.52315 8.0514 4.78669C8.0514 4.97367 7.9909 5.17166 7.86991 5.38064C7.74892 5.58962 7.54544 5.8206 7.25947 6.07358C6.8965 6.39255 6.64616 6.69788 6.50845 6.98957C6.37075 7.28127 6.30211 7.67437 6.30255 8.16889ZM2.27691 12.6895C1.91395 12.6895 1.60333 12.5604 1.34508 12.3021C1.08682 12.0438 0.957471 11.733 0.957031 11.3696V2.13043C0.957031 1.76746 1.08638 1.45685 1.34508 1.19859C1.60377 0.940335 1.91439 0.810987 2.27691 0.810547H11.5161C11.8791 0.810547 12.1899 0.939895 12.4486 1.19859C12.7073 1.45729 12.8364 1.7679 12.836 2.13043V11.3696C12.836 11.7326 12.7068 12.0434 12.4486 12.3021C12.1903 12.5608 11.8795 12.6899 11.5161 12.6895H2.27691Z" fill="#3C332B"/>
</svg>

<svg xmlns="http://www.w3.org/2000/svg" width="13" height="13" fill="none"><path fill="#3C332B" d="M6.897 10.71q.346 0 .586-.24t.238-.585q0-.345-.24-.586a.8.8 0 0 0-.585-.24.8.8 0 0 0-.586.24.8.8 0 0 0-.238.586.8.8 0 0 0 .24.586q.238.239.584.239m-.594-2.541h1.22q0-.594.132-.875.132-.28.561-.709.577-.578.817-.965.239-.389.24-.883 0-.875-.595-1.41-.594-.535-1.6-.537-.908 0-1.542.446-.636.446-.883 1.237l1.089.43a1.3 1.3 0 0 1 .462-.718q.346-.272.808-.273.445 0 .742.24t.297.635q0 .28-.181.594-.182.313-.61.693-.545.478-.752.916-.206.437-.205 1.179m-4.026 4.52a1.27 1.27 0 0 1-.932-.387 1.27 1.27 0 0 1-.388-.932V2.13q0-.544.388-.931.389-.388.932-.388h9.24q.543 0 .932.388.387.387.387.931v9.24q0 .544-.387.932-.388.388-.933.388z"/></svg>
